X:1
T:Ode to Joy
T:Ode to Joy
T:Piano Arrangement
T:Beethoven/arr. by Kraynak
T:2020
C:Beethoven/arr. by Kraynak
Z:2020
L:1/8
M:4/4
K:C
V:1 treble nm="Piano" snm="Pno."
V:1
!mp! z DGB e2 d2 | GDGB e2 d2 | E2 E2 F2 G2 | G2 F2 E2 D2 | C2 C2 D2 E2 | E3 D D2 z2 | z8 | z8 | %8
 z8 | z8 | z8 | z8 | z8 | z8 | z8 | z8 | z8 | z8 | z8 | z8 | z8 | z8 | z8 | z8 | z8 | z8 | z8 | %27
 z8 | z8 | z8 | z8 | z8 | z8 | z8 |] %34

